X:88
T:Gan Ainm
R:Reel
S:Seamus Quinn, Fermanagh (fiddle)
D:Session tape - Buncrana 1979
Z:Bernie Stocks
M:4/4
K:D
FE || DF~F2 EFDF | Adfd edBA | DF~F2 EFDA | BAGF EA,CE |
DF~F2 EFDF | Adfd edBf | abaf gfec | dBAG FGEF ::
dfaf g2fg | afdf edcB | Ac~c2 BcAB | Ad~d2 efge |
a2af g2ge | dfed =cAGE | Ad~d2 =cAdB | =cAGE EDD2 :|
<end>
<start>
